!!!COM: Palestrina, Giovanni Perluigi da
!!!OPR: In duplicibus minoribus (II)
!!!OTL: Kyrie
**kern	**kern	**kern	**kern	**kern
*Ibass	*Itenor	*Itenor	*Icalto	*Icant
!Bassus	!Tenor 2	!Tenor 1	!Altus	!Cantus
*clefF4	*clefGv2	*clefGv2	*clefG2	*clefG2
*k[]	*k[]	*k[]	*k[]	*k[]
*E:phr	*E:phr	*E:phr	*E:phr	*E:phr
*M4/2	*M4/2	*M4/2	*M4/2	*M4/2
=1	=1	=1	=1	=1
0r	0r	0r	1A	1r
.	.	.	1e	1e
=2	=2	=2	=2	=2
0r	0r	0r	2c	1a
.	.	.	2d	.
.	.	.	2e	2g
.	.	.	2f	2a
=3	=3	=3	=3	=3
0r	1E	0r	4g	2b
.	.	.	4f	.
.	.	.	4e	2g
.	.	.	4d	.
.	1A	.	4c	4a
.	.	.	4d	4b
.	.	.	4e	4cc
.	.	.	4f	4a
=4	=4	=4	=4	=4
0r	2G	0r	1e	2b
.	2A	.	.	2.cc
.	2B	.	1d	.
.	.	.	.	4b
.	2G	.	.	[2b
=5	=5	=5	=5	=5
1AA	2A	1r	4c	4b]
.	.	.	4d	4a
.	2c	.	4e	1a
.	.	.	4f	.
1E	1B	2r	[1e	.
.	.	[2E	.	2g#
=6	=6	=6	=6	=6
2C	1A	2E]	2e]	2.a
1D	.	1A	2d	.
.	.	.	.	4g
.	1B	.	1r	2f
2E	.	2G	.	2e
=7	=7	=7	=7	=7
2F	2r	2A	0r	1d
2G	2d	2B	.	.
2.C	2c	2G	.	[1e
.	2c	[2A	.	.
4D	.	.	.	.
=8	=8	=8	=8	=8
1E	1B	2A]	1r	1e]
.	.	2G#	.	.
2F	1A	1A	2r	1r
2D	.	.	2d	.
=9	=9	=9	=9	=9
2.F	0r	0r	2A	2r
.	.	.	1d	2a
4G	.	.	.	.
2.A	.	.	.	2e
.	.	.	2c	[2a
4G	.	.	.	.
=10	=10	=10	=10	=10
2F	0r	0r	2d	2a]
2E	.	.	2e	2g
2A	.	.	2c	2a
4G	.	.	2d	2b
4F	.	.	.	.
=11	=11	=11	=11	=11
2E	0r	2r	2.e	2g
2AA	.	2A	.	2cc
.	.	.	4f	.
1r	.	2E	4g	2b
.	.	.	4f	.
.	.	[2A	4e	2a
.	.	.	4d	.
=12	=12	=12	=12	=12
0r	0r	2A]	4c	1e
.	.	.	4d	.
.	.	2G	1e	.
.	.	2A	.	1f
.	.	2B-	2d	.
=13	=13	=13	=13	=13
0r	2r	2G	2B-	[0e
.	2A	2A	2c	.
.	2E	2B	2G	.
.	[2A	2c	2A	.
=14	=14	=14	=14	=14
0r	2A]	1B	1E	1e]
.	2G	.	.	.
.	2.A	[1c	[1e	2r
.	.	.	.	2a
.	4B	.	.	.
=15	=15	=15	=15	=15
1A	2.c	2c]	1e]	2e
.	.	2A	.	2a
.	4d	.	.	.
2E	2e	2B	2r	2g
[2A	[2c	2A	2e	2a
=16	=16	=16	=16	=16
2A]	4c]	0r	2A	2cc
.	4A	.	.	.
2G	2B	.	1e	2b
2A	2c	.	.	2a
2B	[2d	.	2d	[2g
=17	=17	=17	=17	=17
2G	2d]	1r	2B	2g]
2A	1c	.	2c	2f#
1G	.	2r	1d	[1g
.	4B	[2d	.	.
.	4A	.	.	.
=18	=18	=18	=18	=18
2r	0B	2d]	1G	0g]
1G	.	2B	.	.
.	.	2d	2r	.
2E	.	2e	[2g	.
=19	=19	=19	=19	=19
2G	2r	2d	2g]	0r
2A	1c	4c	2e	.
.	.	4d	.	.
2E	.	4e	2g	.
.	.	4d	.	.
[2F	2A	4c	[2a	.
.	.	4B	.	.
=20	=20	=20	=20	=20
4F]	2c	2.A	2a]	0r
4E	.	.	.	.
1D	2d	.	1f	.
.	.	4G	.	.
.	2A	2F	.	.
2C	[2c	2G	2e	.
=21	=21	=21	=21	=21
[0GG	2c]	0G	1d	2r
.	4B	.	.	1dd
.	4A	.	.	.
.	1B	.	2r	.
.	.	.	[2d	2b
=22	=22	=22	=22	=22
1GG]	1G	2r	2d]	2.dd
.	.	1G	2B	.
.	.	.	.	4cc
1r	1r	.	2d	4b
.	.	.	.	4a
.	.	2E	[2e	[2g
=23	=23	=23	=23	=23
0r	2r	2G	4e]	4g]
.	.	.	4d	4f
.	1c	1A	4c	4e
.	.	.	4B	4d
.	.	.	2A	2c
.	2A	[2F	2a	2cc
=24	=24	=24	=24	=24
0r	1c	2F]	2f	2a
.	.	2E	1g	2cc
.	1d	1D	.	2b
.	.	.	2f	2a
=25	=25	=25	=25	=25
2r	2B	[0E	[0e	2g
2AA	2A	.	.	2.cc
2.C	2G	.	.	.
.	.	.	.	4b
.	2c	.	.	[2a
4D	.	.	.	.
=26	=26	=26	=26	=26
2E	1B	0E]	0e]	2a]
2E	.	.	.	2g#
1AA	1c	.	.	1a
=27	=27	=27	=27	=27
[0E	[0B	[0E	[0e	[0g#
=28	=28	=28	=28	=28
0E]	0B]	0E]	0e]	0g#]
=29	=29	=29	=29	=29
0r	0B	1r	0r	0r
.	.	[1B	.	.
=30	=30	=30	=30	=30
0E	2.G	1B]	0r	0r
.	4A	.	.	.
.	2B	1G	.	.
.	[2c	.	.	.
=31	=31	=31	=31	=31
2.C	4c]	2A	0r	0e
.	4B	.	.	.
.	1A	2c	.	.
4D	.	.	.	.
1E	.	1B	.	.
.	2G#	.	.	.
=32	=32	=32	=32	=32
2F	1A	2A	0r	1c
2A	.	1c	.	.
1G	2r	.	.	1d
.	2d	2B	.	.
=33	=33	=33	=33	=33
2F	2A	1c	0r	1f
2A	2c	.	.	.
2G	2B	2d	.	1g
4F	[2c	[2e	.	.
4E	.	.	.	.
=34	=34	=34	=34	=34
1F	2c]	2e]	1r	1a
.	4B	2d	.	.
.	4A	.	.	.
2.E	2B	1e	[1B	2.g
.	[2G	.	.	.
4F	.	.	.	4a
=35	=35	=35	=35	=35
1G	4G]	2.d	1B]	4b
.	4A	.	.	4cc
.	4B	.	.	2.b
.	4c	4c	.	.
1GG	[1d	1B	1G	.
.	.	.	.	4a
.	.	.	.	[2g
=36	=36	=36	=36	=36
1D	1d]	2A	1A	2g]
.	.	2D	.	2f#
2C	1e	2r	1c	1g
2E	.	2G	.	.
=37	=37	=37	=37	=37
2F	1r	2A	1d	0r
2.G	.	2.B	.	.
.	2r	.	1e	.
4E	.	4G	.	.
2A	2A	[2c	.	.
=38	=38	=38	=38	=38
2F	2A	2c]	1d	0r
2G	2.B	2B	.	.
1E	.	1G	1e	.
.	4G	.	.	.
.	4B	.	.	.
.	4c	.	.	.
=39	=39	=39	=39	=39
2D	1.d	1A	1f	2r
2D	.	.	.	2a
2F	.	1r	1d	2a
[2G	2B	.	.	[2b
=40	=40	=40	=40	=40
4G]	1r	2r	1e	4b]
4E	.	.	.	4g
2A	.	2A	.	1cc
2F	2r	2A	1f	.
2D	2d	[2B	.	4b
.	.	.	.	4a
=41	=41	=41	=41	=41
2E	2B	4B]	[0e	2g
.	.	4G	.	.
4C	2.e	2c	.	1a
4AA	.	.	.	.
1E	.	1B	.	.
.	4d	.	.	.
.	2B	.	.	2g#
=42	=42	=42	=42	=42
1AA	1c	2.A	1e]	2a
.	.	.	.	2a
.	.	4B	.	.
1r	1e	1c	2r	2g
.	.	.	2c	2e
=43	=43	=43	=43	=43
0r	2d	1G	2B	0g
.	2B	.	2G	.
.	2d	1r	2B	.
.	2e	.	[2c	.
=44	=44	=44	=44	=44
1r	2c	0r	4c]	1g
.	.	.	8B	.
.	.	.	8A	.
.	2d	.	2B	.
1A	[1e	.	4c	2r
.	.	.	4d	.
.	.	.	4e	2cc
.	.	.	4f#	.
=45	=45	=45	=45	=45
2G	0e]	0r	1.g	2b
2E	.	.	.	2g
2G	.	.	.	2b
2A	.	.	2e	[2cc
=46	=46	=46	=46	=46
2F	1d	1r	2f	4cc]
.	.	.	.	8b
.	.	.	.	8a
2G	.	.	2d	2b
1A	1r	2r	1c	2e
.	.	2c	.	2f#
=47	=47	=47	=47	=47
2G	2r	2B	2r	[0g
2E	2c	2.G	2e	.
[1G	2B	.	2d	.
.	.	4A	.	.
.	2G	[2B	2B	.
=48	=48	=48	=48	=48
2G]	2B	2B]	2d	1g]
4F	1c	4A	2e	.
4E	.	4G	.	.
1F	.	1A	2c	2r
.	4B	.	2d	2a
.	4A	.	.	.
=49	=49	=49	=49	=49
1.E	2.B	0r	0e	2g
.	.	.	.	2e
.	4c	.	.	.
.	2B	.	.	2g
2C#	[2A	.	.	2a
=50	=50	=50	=50	=50
0D	2A]	1r	1d	2f
.	1G	.	.	2g
.	.	1A	2.d	2a
.	2F	.	.	[2dd
.	.	.	4c	.
=51	=51	=51	=51	=51
0r	2.G	2G	2B	2dd]
.	.	2E	2e	2cc
.	4A	.	.	.
.	2B	2G	2d	2b
.	[2c	2A	2c	[2a
=52	=52	=52	=52	=52
1r	2c]	2F#	0d	2a]
.	2B	2G	.	1g
1D	2A	1A	.	.
.	2D	.	.	2f#
=53	=53	=53	=53	=53
1BB	1d	1G	2r	1g
.	.	.	2d	.
2C	2c	1G	2e	2r
2GG	2B	.	[2g	2d
=54	=54	=54	=54	=54
0C	0c	2.E	4g]	2e
.	.	.	4f	.
.	.	.	4e	2.g
.	.	4F	4d	.
.	.	1G	4e	.
.	.	.	4d	4f
.	.	.	4c	[2e
.	.	.	4B	.
=55	=55	=55	=55	=55
0D	2r	1F	4A	2e]
.	.	.	4G	.
.	2A	.	4F	4d
.	.	.	4E	4c
.	4A	1F	2D	1d
.	4G	.	.	.
.	4A	.	[2A	.
.	4B	.	.	.
=56	=56	=56	=56	=56
0AA	2.c	[0E	4A]	[0e
.	.	.	4G#	.
.	.	.	4A	.
.	4B	.	4B	.
.	1A	.	1c	.
=57	=57	=57	=57	=57
[0E	[0G#	1E_	[0B	1e_
.	.	1E_	.	1e_
=58	=58	=58	=58	=58
0E]	0G#]	0E]	0B]	0e]
=59	=59	=59	=59	=59
0r	0r	0r	2r	0a
.	.	.	2d	.
.	.	.	2c	.
.	.	.	2A	.
=60	=60	=60	=60	=60
0r	0r	0r	2c	1a
.	.	.	2d	.
.	.	.	2e	[1g
.	.	.	4d	.
.	.	.	4c	.
=61	=61	=61	=61	=61
1r	2r	1r	4B	1g]
.	.	.	4A	.
.	2d	.	2B	.
2r	2c	[1A	2A	[1a
2D	2A	.	2f	.
=62	=62	=62	=62	=62
2C	2.c	1A]	1e	0a]
2AA	.	.	.	.
.	4d	.	.	.
2C	2e	1A	1r	.
2D	4d	.	.	.
.	4c	.	.	.
=63	=63	=63	=63	=63
2E	2.B	0G	0r	1r
4D	.	.	.	.
4C	4c	.	.	.
4BB	2d	.	.	2r
4AA	.	.	.	.
2BB	2D	.	.	2dd
=64	=64	=64	=64	=64
2AA	2E	0A	1r	2cc
2D	2F	.	.	2a
2C	1E	.	2r	[1cc
2AA	.	.	2a	.
=65	=65	=65	=65	=65
2.C	1r	0E	2g	1cc]
.	.	.	2e	.
4D	.	.	.	.
4E	1e	.	[1g	[1b
4F	.	.	.	.
2G	.	.	.	.
=66	=66	=66	=66	=66
0GG	2d	0G	1g]	2b]
.	1B	.	.	2g
.	.	.	1d	1b
.	[2d	.	.	.
=67	=67	=67	=67	=67
1D	2d]	1F	2r	2.a
.	2A	.	2d	.
.	.	.	.	4g
2AA	1e	1E	2c	4a
.	.	.	.	4b
2AA	.	.	4A	4cc
.	.	.	4B	4dd
=68	=68	=68	=68	=68
4AA	2e	1A	4c	2cc
4BB	.	.	4d	.
4C	1e	.	4e	1cc
4D	.	.	4f	.
4E	.	1G	1g	.
4F	.	.	.	.
2G	[2d	.	.	[2b
=69	=69	=69	=69	=69
2D	2d]	1A	2f	4b]
.	.	.	.	4a
2F	2A	.	2d	1a
1E	2r	1B	1e	.
.	[2e	.	.	2g#
=70	=70	=70	=70	=70
1AA	2e]	1A	2r	2a
.	2c	.	2e	1a
1r	2d	1r	2f	.
.	2G	.	2d	2b
=71	=71	=71	=71	=71
0r	2c	0r	2.e	2g
.	2A	.	.	1a
.	.	.	4c	.
.	2B	.	2d	.
.	2c	.	2e	[2g
=72	=72	=72	=72	=72
1r	1A	1r	1c	4g]
.	.	.	.	4e
.	.	.	.	2f#
2r	1G	2r	2B	1g
2E	.	2B	[2e	.
=73	=73	=73	=73	=73
2A	0r	2c	2e]	2r
2D	.	1d	2f	2a
2G	.	.	2d	2b
2E	.	4c	[2e	[2cc
.	.	4B	.	.
=74	=74	=74	=74	=74
2F	0r	2A	2e]	2cc]
2G	.	1B	2.d	4b
.	.	.	.	4a
1E	.	.	.	2.g
.	.	.	4B	.
.	.	2G	2c#	.
.	.	.	.	4e
=75	=75	=75	=75	=75
0D	1r	2A	0d	2f#
.	.	2B	.	1g
.	2r	1A	.	.
.	2d	.	.	2f#
=76	=76	=76	=76	=76
1G	2e	[0G	2r	0g
.	2B	.	2d	.
2C	2c	.	2e	.
2GG	4d	.	2B	.
.	4c	.	.	.
=77	=77	=77	=77	=77
1GG	4B	1G]	1d	2r
.	4A	.	.	.
.	2B	.	.	2g
1r	2.A	1r	[1c	2a
.	.	.	.	2e
.	4G	.	.	.
=78	=78	=78	=78	=78
0r	4E	0r	2c]	1g
.	4F	.	.	.
.	2G	.	2B	.
.	4D	.	2.A	1f
.	4E	.	.	.
.	4F	.	.	.
.	4G	.	4B	.
=79	=79	=79	=79	=79
1r	4A	0r	4c	1e
.	4B	.	4d	.
.	1c	.	4e	.
.	.	.	4f	.
1G	.	.	2.g	1d
.	2B	.	.	.
.	.	.	4f	.
=80	=80	=80	=80	=80
2A	2c	0r	4e	2c
.	.	.	4d	.
2E	2e	.	2c	2.g
1G	2d	.	2B	.
.	.	.	.	4f
.	2B	.	2G	[2e
=81	=81	=81	=81	=81
1F	2c	1r	1A	2e]
.	2A	.	.	2d
2E	1B	2r	2G#	2e
2E	.	2G	2E	2b
=82	=82	=82	=82	=82
2AA	0r	2A	1e	2cc
2C	.	2E	.	2a
4GG	.	1G	[1d	1b
4AA	.	.	.	.
4BB	.	.	.	.
4C	.	.	.	.
=83	=83	=83	=83	=83
1D	2r	1F	2d]	1a
.	2d	.	2A	.
1r	2e	1E	2B	[1g
.	2B	.	2G	.
=84	=84	=84	=84	=84
1r	1d	1D	1A	2g]
.	.	.	.	2f#
2r	1c	1E	[1e	2g
2AA	.	.	.	[2a
=85	=85	=85	=85	=85
1E	1B	[0E	1e]	2a]
.	.	.	.	2g#
1AA	1A	.	2.c	1a
.	.	.	4d	.
=86	=86	=86	=86	=86
[0E	[0B	1E_	[0e	[0g#
.	.	1E_	.	.
=87	=87	=87	=87	=87
0E]	0B]	0E]	0e]	0g#]
==	==	==	==	==
*-	*-	*-	*-	*-
!!!CDT: 1525/^1526/-1594/2/2
!!!OCY: Italia
!!!AGN: Mass (Paraphrase)
!!!AST: renaissance, vocal
!!!ASW: Gregorian Mass
!!!PWK: Masses, Book Mantuan I
!!!RNB: Cadence finals: A
!!!YOR: Le Opere Complete, v. 18, p. 1
!!!YOO: Rome, Italy: Fratelli Scalera
!!!END: 1992//
!!!EED: John Miller
!!!YEC: Copyright 2000, John Miller
!!!YEN: United States of America
!!!YEM: Rights to all derivative electronic formats reserved.
!!!YEM: Refer to licensing agreement for further details.
!!!YEM: This file must be accompanied by the licensing agreement.
!!!YEM: A copy of the licensing agreement may be found at http://www.music-cog.ohio-state.edu/HumdrumDatabases/Palestrina/license.txt
!!!EMD: converted to Humdrum by Bret Aarden
